X:145
T:Star of Munster
M:4/4
L:1/8
K:ADor
AB||:"Ami"cBAc "G"BAGB|"Ami"AGEF "G"GEDG|"Ami"EAAG ABcd|"F"eaaf "G"gfed
  |"Ami"cBAc "G"BAGB|"Ami"AGEF "G"GEDG| "Ami"EAAG ABcd|edcB A4:||:
"A"eaab ageg|agab agef|"G"g2 ga gede| geaf gf e2|"A"eaab ageg|agab agef|
"
G"g2ge a2 ag
  |b3a "[TOP]"gfed:||
|"[END] Ami"cBAc B"G"AGB|A8 ||
